src/images/icons/telegram-icon.svg

<svg width="35" height="36" viewBox="0 0 35 36" fill="none" xmlns="http://www.w3.org/2000/svg">
<g id="Telegram">
<g clip-path="url(#clip0_1185_3939)">
<rect y="0.5" width="35" height="35" rx="17.5" fill="white"/>
<path id="Subtract" fill-rule="evenodd" clip-rule="evenodd" d="M100 0.5H0V100.5H100V0.5ZM17.6121 27.6742C22.8931 27.6742 27.1742 23.3931 27.1742 18.1121C27.1742 12.8311 22.8931 8.55 17.6121 8.55C12.3311 8.55 8.05 12.8311 8.05 18.1121C8.05 23.3931 12.3311 27.6742 17.6121 27.6742ZM12.1491 17.9027C12.1491 17.9027 16.8857 15.8876 18.5284 15.178C19.1582 14.8942 21.2937 13.986 21.2937 13.986C21.2937 13.986 22.2794 13.5886 22.1972 14.5536C22.1775 14.8406 22.0578 15.6455 21.9103 16.6372L21.9103 16.6373C21.8535 17.0188 21.7927 17.428 21.7318 17.8459C21.4032 19.9746 21.0473 22.3019 21.0473 22.3019C21.0473 22.3019 20.9926 22.9547 20.5271 23.0682C20.0617 23.1817 19.295 22.6709 19.1582 22.5573C19.1344 22.5389 19.0243 22.4643 18.8591 22.3524L18.8591 22.3524C18.263 21.9487 16.9503 21.0595 16.3929 20.5706C16.2012 20.4003 15.9822 20.0597 16.4202 19.6624C17.4059 18.7258 18.5832 17.5621 19.295 16.8242C19.6236 16.4836 19.9521 15.6889 18.5832 16.6539C16.6393 18.0446 14.7228 19.3502 14.7228 19.3502C14.7228 19.3502 14.2847 19.634 13.4633 19.3785C12.6419 19.1231 11.6836 18.7825 11.6836 18.7825C11.6836 18.7825 11.0266 18.3568 12.1491 17.9027Z" fill="#34AADF"/>
</g>
</g>
<defs>
<clipPath id="clip0_1185_3939">
<rect y="0.5" width="35" height="35" rx="17.5" fill="white"/>
</clipPath>
</defs>
</svg>

<svg width="35" height="36" fill="none" xmlns="http://www.w3.org/2000/svg"><g clip-path="url(#a)"><rect y=".5" width="35" height="35" rx="17.5" fill="#fff"/><path fill-rule="evenodd" clip-rule="evenodd" d="M100 .5H0v100h100V.5ZM17.612 27.674a9.562 9.562 0 1 0 0-19.124 9.562 9.562 0 0 0 0 19.124Zm-5.463-9.771s4.737-2.015 6.38-2.725c.63-.284 2.765-1.192 2.765-1.192s.985-.397.903.568c-.02.287-.14 1.091-.287 2.083l-.178 1.209c-.329 2.129-.685 4.456-.685 4.456s-.054.653-.52.766c-.465.114-1.232-.397-1.369-.51a13.836 13.836 0 0 0-.299-.206c-.596-.403-1.909-1.293-2.466-1.781-.192-.17-.41-.511.027-.909.986-.936 2.163-2.1 2.875-2.838.329-.34.657-1.135-.712-.17-1.944 1.39-3.86 2.696-3.86 2.696s-.438.284-1.26.028a55.503 55.503 0 0 1-1.78-.596s-.656-.425.466-.88Z" fill="#34AADF"/></g><defs><clipPath id="a"><rect y=".5" width="35" height="35" rx="17.5" fill="#fff"/></clipPath></defs></svg>
